X:1
T:Title
%%score { ( 1 3 ) | ( 2 4 ) }
L:1/8
Q:1/4=100
M:4/4
K:C
V:1 treble nm="Grand Piano"
V:3 treble 
V:2 bass 
V:4 bass 
V:1
 [EG]2 [EG]>[FA] [EG]2 [CE]2 | [Ec]2 [Ec]>[Fd] [Ec]2 B2 | G2 G>A G2 B2 | d2 e2 [Fd]2 [Ec]2 | %4
w: W.~H.~Doane * * * *||||
 [EG]2 [EG]>[FA] [EG]2 [Ec]2 | [Ge]2 [Gd]>[Gc] [Ac]2 A2 | G2 c2 cc G2 | e3 d [Ec]4 | [Fd]4 z4 | %9
w: |||||
 .[CEG]2 [Ec]2 [CEG]2 G2 | c4 z4 | G4 E4 | [Fd]4 z4 | [EG]2 [Ec]2 [Ge]4 | %14
w: |||||
 [^Ge]2 [GB][Gd] [Ac]2 [EA][Ec] |[M:9/8] [EB]3- [EB] [FB]2- [FB] z z | %16
w: ||
[M:4/4] [EG]2 [EG]>[FA] [EG]2 [Ec]2 | [Ge]2 [Gd]>[Gc] [Ac]2 A2 | G2 c2 cc G2 | e3 d [Ec]4 |] %20
w: ||||
V:2
 [C,C]2 [C,C]>[C,C] [C,C]2 [C,G,]2 | [C,G,]2 [C,G,]>[C,G,] [G,,G,]2[K:treble] [G,D]2 | %2
 [G,B,F]2 [G,B,F]>[G,CF] [G,B,F]2 [G,DF]2 | [G,B,F]2[K:bass] [G,,B,G]2 [C,G,]2 [C,G,]2 | %4
 [C,C]2 [C,C]>[C,C] [C,C]2 [C,G,]2 | [C,C]2 [E,C]>[E,C] [F,C]2[K:treble] [F,CF]2 | %6
 [G,CE]2 [A,CE]2 [G,CE][G,CE] [G,CE]2 | [G,B,G]3 [G,B,F][K:bass] [C,C]4 | %8
 [G,B,]2 G,2[K:treble] FFFF | z G,A,B, C,2 [E,C]2 | F2- [F,F]2 FF[CF][A,F] | %11
 [E,C]2 [C,C]2 C2- [C,C]2 | G,,2 G,,2[K:treble] FF .[G,DF]2 | [C,C]2 [C,G,]2 [C,C]2 [C,C]2 | %14
 [E,B,]2 [E,E][E,E] [A,E]2 [A,C][A,,A,] |[M:9/8] [E,^G,]3- [E,G,] [D,=G,]2- [D,G,] z z | %16
[M:4/4] [C,C]2 [C,C]>[C,C] [C,C]2 [C,G,]2 | [C,C]2 [E,C]>[E,C] [F,C]2[K:treble] [F,CF]2 | %18
 [G,CE]2 [A,CE]2 [G,CE][G,CE] [G,CE]2 | [G,CG]3 [G,B,F][K:bass] [C,C]4 |] %20
V:3
 x8 | x8 | x8 | x8 | x8 | x8 | x8 | x8 | z2 B,2 edBG | x8 | z2 A,2 dcAc | z2 E2 z2 G,2 | %12
 B,2 B,2 edBG | x8 | x8 |[M:9/8] x9 |[M:4/4] x8 | x8 | x8 | x8 |] %20
V:4
 x8 | x6[K:treble] x2 | x8 | x2[K:bass] x6 | x8 | x6[K:treble] x2 | x8 | x4[K:bass] x4 | %8
 z4[K:treble] [G,B,]2 [G,D]2 | C,2 C,2 z4 | [F,A,]2 z2 [F,A,]2 F,2 | z4 [C,G,]2 z2 | %12
 z4[K:treble] [G,B,]2 z2 | x8 | x8 |[M:9/8] x9 |[M:4/4] x8 | x6[K:treble] x2 | x8 | %19
 x4[K:bass] x4 |] %20

